X:15
T:Polska efter Byss-Calle
R:sl-polska
S:efter Byss-Calle, \"Alvkarleby, Uppland
A:Uppland
Z:id:hn-sp-15
M:3/4
L:1/16
K:G
d3B G2G2 BGBd|A2AB G2G2 BGBd|c2ce d2Bd cBAG|FGAB AGFE D4|
d3B G2G2 BGBd|A2AB G2G2 BGBd|c2ce d2Bd cBAG|FGAB A2BA G4:|
|:d2d2 d2ef g2g2|g2fe d2ef g2B2|cBce d2Bd cBAG|FGAB AGFE D4|
d2d2 d2ef g2g2|g2fe d2ef g2B2|cBce d2Bd cBAG|FGAB A2BA G4:|

